lib/brands/icons/google-slides.svg

<svg xmlns="http://www.w3.org/2000/svg" fill="none" aria-hidden="true" viewBox="0 0 48 48"><g id="google-slides-Icon"><g id="Group"><path id="Path" fill="#F4B400" d="M27.2697 6H13.3622C12.0122 6 10.9077 7.10376 10.9077 8.45376V39.5462C10.9077 40.8962 12.0115 42 13.3615 42H34.631C35.981 42 37.0848 40.8962 37.0848 39.5462V15.8158L31.3543 11.7233L27.2697 6Z"/><path id="Shape" fill="#F1F1F1" d="M29.3161 22.362H18.6846C18.0092 22.362 17.4541 22.9171 17.4541 23.5925V34.2305C17.4541 34.9058 18.0092 35.461 18.6846 35.461H29.3226C29.9979 35.461 30.5531 34.9058 30.5531 34.2305V23.5925C30.5466 22.9171 29.9907 22.362 29.3161 22.362ZM28.9079 31.7695H19.0928V26.039H28.9086V31.7695H28.9079Z"/><path id="Path_1_" fill="url(#paint0_linear_94_17848)" d="M27.9941 15.0986L37.0928 24.1966V15.8158L27.9941 15.0986Z"/><path id="Path_2_" fill="#FADA80" d="M27.2715 6.003V13.365C27.2715 14.7222 28.368 15.8188 29.7252 15.8188H37.0872L27.2715 6.003Z"/><path id="Path_3_" fill="white" fill-opacity="0.1" d="M27.2695 6V6.20376L36.888 15.8158H37.0925L27.2695 6Z"/><path id="Path_4_" fill="white" fill-opacity="0.2" d="M13.3622 6C12.0122 6 10.9077 7.10376 10.9077 8.45376V8.65752C10.9077 7.30752 12.0115 6.20376 13.3615 6.20376H27.269V6H13.3622Z"/><path id="Path_5_" fill="#BF360C" fill-opacity="0.2" d="M34.638 41.7962H13.362C12.012 41.7962 10.9082 40.6925 10.9082 39.3425V39.5462C10.9082 40.8962 12.012 42 13.362 42H34.6315C35.9815 42 37.0852 40.8962 37.0852 39.5462V39.3425C37.0924 40.6925 35.988 41.7962 34.638 41.7962Z"/><path id="Path_6_" fill="#BF360C" fill-opacity="0.1" d="M29.7306 15.8158C28.3734 15.8158 27.2769 14.7192 27.2769 13.362V13.5658C27.2769 14.923 28.3734 16.0195 29.7306 16.0195H37.0926V15.8158H29.7306Z"/><path id="Path_7_" fill="url(#paint1_radial_94_17848)" d="M27.2697 6H13.3622C12.0122 6 10.9077 7.10376 10.9077 8.45376V39.5462C10.9077 40.8962 12.0115 42 13.3615 42H34.631C35.981 42 37.0848 40.8962 37.0848 39.5462V15.8158L27.2697 6Z"/></g></g><defs><linearGradient id="paint0_linear_94_17848" x1="32.5432" x2="32.5432" y1="15.8826" y2="24.201" gradientUnits="userSpaceOnUse"><stop stop-color="#BF360C" stop-opacity="0.2"/><stop offset="1" stop-color="#BF360C" stop-opacity="0.02"/></linearGradient><radialGradient id="paint1_radial_94_17848" cx="0" cy="0" r="1" gradientTransform="translate(11.74 6.976) scale(42.218)" gradientUnits="userSpaceOnUse"><stop stop-color="white" stop-opacity="0.1"/><stop offset="1" stop-color="white" stop-opacity="0"/></radialGradient></defs></svg>

<svg xmlns="http://www.w3.org/2000/svg" fill="none" aria-hidden="true" viewBox="0 0 48 48"><path fill="#F4B400" d="M27.27 6H13.362a2.461 2.461 0 0 0-2.454 2.454v31.092A2.46 2.46 0 0 0 13.362 42H34.63a2.46 2.46 0 0 0 2.454-2.454v-23.73l-5.73-4.093L27.27 6Z"/><path fill="#F1F1F1" d="M29.316 22.362H18.685c-.676 0-1.23.555-1.23 1.23v10.639c0 .675.554 1.23 1.23 1.23h10.638c.675 0 1.23-.555 1.23-1.23v-10.64a1.246 1.246 0 0 0-1.237-1.23Zm-.408 9.408h-9.815v-5.731h9.816v5.73h-.001Z"/><path fill="url(#a)" d="m27.994 15.099 9.099 9.098v-8.381l-9.099-.717Z"/><path fill="#FADA80" d="M27.271 6.003v7.362a2.451 2.451 0 0 0 2.454 2.454h7.362l-9.816-9.816Z"/><path fill="#fff" fill-opacity=".1" d="M27.27 6v.204l9.618 9.612h.205L27.269 6Z"/><path fill="#fff" fill-opacity=".2" d="M13.362 6a2.461 2.461 0 0 0-2.454 2.454v.204a2.46 2.46 0 0 1 2.454-2.454h13.907V6H13.362Z"/><path fill="#BF360C" fill-opacity=".2" d="M34.638 41.796H13.362a2.46 2.46 0 0 1-2.454-2.453v.203A2.46 2.46 0 0 0 13.362 42h21.27a2.46 2.46 0 0 0 2.453-2.454v-.203a2.45 2.45 0 0 1-2.447 2.453Z"/><path fill="#BF360C" fill-opacity=".1" d="M29.73 15.816a2.451 2.451 0 0 1-2.453-2.454v.204a2.451 2.451 0 0 0 2.454 2.454h7.362v-.204H29.73Z"/><path fill="url(#b)" d="M27.27 6H13.362a2.461 2.461 0 0 0-2.454 2.454v31.092A2.46 2.46 0 0 0 13.362 42H34.63a2.46 2.46 0 0 0 2.454-2.454v-23.73L27.27 6Z"/><defs><radialGradient id="b" cx="0" cy="0" r="1" gradientTransform="translate(11.74 6.976) scale(42.218)" gradientUnits="userSpaceOnUse"><stop stop-color="#fff" stop-opacity=".1"/><stop offset="1" stop-color="#fff" stop-opacity="0"/></radialGradient><linearGradient id="a" x1="32.543" x2="32.543" y1="15.883" y2="24.201" gradientUnits="userSpaceOnUse"><stop stop-color="#BF360C" stop-opacity=".2"/><stop offset="1" stop-color="#BF360C" stop-opacity=".02"/></linearGradient></defs></svg>
